X:759
M:C
L:1/8
K:E Minor
f|g>fe>^d e<B B>^c|d>BA>G F<dF<D|E>Be>f g>fe>d|(3B^cd (3ef^d e2 e>f|
g>fe>^d e>Bd>^c|d>BA>G F<dF<D|(3EFG (3FGA (3GAB (3ABc|
(3dcB (3AGF G<E~E||

